X:125
T:Jackie Coleman's 2
R:Reel
O:Ireland
S:Music from Ireland Vol. 3
B:Music from Ireland Vol. 3
Z:Transcription, chords:Mike Long
M:C|
L:1/8
K:D
"D"AF~F2 AFEF|"D"DF~F2 "A"A2Bc|"D"dA~A2 d2fg|\
"D"afed "G"BG~G2|"D"AF~F2 AFEF|"D"DF~F2 "A"A2Bc|
"D"~d2ce "G"defg|"A"afeg "D"fddB:|\
|:"D"d2fd Adfd|"C"=c2ec Gcec|"D"d2fd  Adfa|
"A"~g2ea "D"fddA|"D"df~f2 Adfd|"C"=c2ec Gcec|"D"defg "A"a2ag|"A"faef "D"d2dB:|
